images/client-logos/caixa.svg

<svg fill="none" height="91" viewBox="0 0 400 91" width="400" xmlns="http://www.w3.org/2000/svg"><g fill="#e3e8f0"><path d="m122.42 30.135-10.352 25.7938h14.322l-3.924-25.9031zm-54.8355 59.2063 42.4635-87.41399h32.095l17.907 87.41399h-28.188l-2.071-11.6472h-27.345l-6.2915 11.6472zm105.8055 0 12.301-87.41399h28.399l-12.298 87.41399zm188.872-59.3156-10.393 25.9031h14.322zm-54.879 59.3156 42.463-87.41399h32.092l17.906 87.41399h-28.185l-2.073-11.6472h-27.344l-6.291 11.6472zm-62.779-40.8736h35.58l24.384 40.385h-35.59z"/><path d="m248.3 42.2636h36.78l31.942-40.20983h-36.78zm-36.78 46.8347h36.78l31.942-40.706h-36.78z"/><path d="m224.782 1.56265h34.33l23.518 40.70085h-34.33zm-156.354 3.49589-2.7326 25.70846c-10.468-14.438-34.7254-4.4755-36.6313 13.5119-2.4213 22.8326 20.9268 28.1592 33.634 14.7129l-2.7399 25.7694c-3.7925 1.8671-7.4999 3.3087-11.1585 4.2885-3.5592.9634-7.222 1.4924-10.9084 1.5752-4.5509.0949-8.6716-.384-12.3887-1.4294-3.6231-.9842-7.0313-2.6347-10.05-4.8671-5.73737-4.1936-9.88477-9.5248-12.44226-16.0157-2.552618-6.5106-3.396198-13.8548-2.523443-22.0645.700153-6.5955 2.365433-12.6124 5.012873-18.0677 2.62555-5.4555 6.26243-10.4075 10.89363-14.9001 4.3783-4.28596 9.1457-7.51687 14.3069-9.71457 5.1368-2.1758 10.7477-3.337838 16.8109-3.464253 3.5745-.0860822 7.1453.289787 10.6236 1.118293 3.4643.829 6.8825 2.12233 10.2932 3.83867z"/></g></svg>

<svg width="400" height="91" viewBox="0 0 400 91" fill="none" xmlns="http://www.w3.org/2000/svg">
<path d="M122.42 30.135L112.068 55.9288H126.39L122.466 30.0257L122.42 30.135ZM67.5845 89.3413L110.048 1.92731H142.143L160.05 89.3413H131.862L129.791 77.6941H102.446L96.1545 89.3413H67.5845ZM173.39 89.3413L185.691 1.92731H214.09L201.792 89.3413H173.39ZM362.262 30.0257L351.869 55.9288H366.191L362.262 30.0257ZM307.383 89.3413L349.846 1.92731H381.938L399.844 89.3413H371.659L369.586 77.6941H342.242L335.951 89.3413H307.383ZM244.604 48.4677H280.184L304.568 88.8527H268.978L244.604 48.4677Z" fill="#E3E8F0"/>
<path d="M248.3 42.2636H285.08L317.022 2.05377H280.242L248.3 42.2636ZM211.52 89.0983H248.3L280.242 48.3923H243.462L211.52 89.0983Z" fill="#E3E8F0"/>
<path d="M224.782 1.56265H259.112L282.63 42.2635H248.3L224.782 1.56265ZM68.428 5.05854L65.6954 30.767C55.2274 16.329 30.97 26.2915 29.0641 44.2789C26.6428 67.1115 49.9909 72.4381 62.6981 58.9918L59.9582 84.7612C56.1657 86.6283 52.4583 88.0699 48.7997 89.0497C45.2405 90.0131 41.5777 90.5421 37.8913 90.6249C33.3404 90.7198 29.2197 90.2409 25.5026 89.1955C21.8795 88.2113 18.4713 86.5608 15.4526 84.3284C9.71523 80.1348 5.56783 74.8036 3.01034 68.3127C0.457722 61.8021 -0.385858 54.4579 0.486897 46.2482C1.18705 39.6527 2.85233 33.6358 5.49977 28.1805C8.12532 22.725 11.7622 17.773 16.3934 13.2804C20.7717 8.99444 25.5391 5.76353 30.7003 3.56583C35.8371 1.39003 41.448 0.227992 47.5112 0.101577C51.0857 0.0154948 54.6565 0.391364 58.1348 1.21987C61.5991 2.04887 65.0173 3.3422 68.428 5.05854Z" fill="#E3E8F0"/>
</svg>
